packages/core/src/svgs/bal.svg

<svg width="24" height="24" viewBox="0 0 24 24" fill="none" xmlns="http://www.w3.org/2000/svg">
<g clip-path="url(#clip0_31_6729)">
<path d="M0 0H24V24H0V0Z" fill="#21222C"/>
<path d="M14.9456 13.0087C17.5021 13.3867 19.2858 14.2412 19.2858 15.2355C19.2858 16.5799 16.0239 17.6698 12.0001 17.6698C7.97621 17.6698 4.71436 16.5799 4.71436 15.2355C4.71436 14.2412 6.49807 13.3862 9.0545 13.0082C9.93264 13.1865 10.9351 13.2877 12.0001 13.2877C13.0381 13.2877 14.0174 13.1917 14.8796 13.0215L14.9456 13.0087ZM13.8438 9.0058C16.1594 9.26337 17.8286 9.99323 17.8286 10.8538C17.8286 11.9295 15.2191 12.8012 12.0001 12.8012C8.78107 12.8012 6.1715 11.9291 6.1715 10.8538C6.1715 9.99323 7.84078 9.26337 10.1559 9.00537C10.7234 9.09837 11.3461 9.14937 12.0001 9.14937C12.6309 9.14937 13.2331 9.10223 13.7842 9.01523L13.8442 9.00537L13.8438 9.0058Z" fill="white"/>
<path d="M12.0001 8.76001C14.4142 8.76001 16.3715 8.10644 16.3715 7.29944C16.3715 6.49287 14.4142 5.83887 12.0001 5.83887C9.58595 5.83887 7.62866 6.49287 7.62866 7.29944C7.62866 8.10644 9.58595 8.76001 12.0001 8.76001Z" fill="white"/>
</g>
<defs>
<clipPath id="clip0_31_6729">
<rect width="24" height="24" fill="white"/>
</clipPath>
</defs>
</svg>

<svg xmlns="http://www.w3.org/2000/svg" width="24" height="24" fill="none" viewBox="0 0 24 24"><g clip-path="url(#a)"><path fill="#21222C" d="M0 0h24v24H0z"/><path fill="#fff" d="M14.946 13.009c2.556.378 4.34 1.232 4.34 2.226 0 1.345-3.262 2.435-7.286 2.435s-7.286-1.09-7.286-2.435c0-.994 1.784-1.849 4.34-2.227.879.179 1.881.28 2.946.28 1.038 0 2.017-.096 2.88-.267zm-1.102-4.003c2.315.257 3.985.987 3.985 1.848 0 1.076-2.61 1.947-5.829 1.947s-5.828-.872-5.828-1.947c0-.86 1.669-1.59 3.984-1.849.567.093 1.19.144 1.844.144.63 0 1.233-.047 1.784-.134zM12 8.76c2.414 0 4.372-.654 4.372-1.46 0-.807-1.958-1.461-4.372-1.461s-4.371.654-4.371 1.46c0 .807 1.957 1.461 4.371 1.461"/></g><defs><clipPath id="a"><path fill="#fff" d="M0 0h24v24H0z"/></clipPath></defs></svg>
